X:1718
T:Bonaparte's Retreat
Z: id:dc-setdance-4
M:C|
L:1/8
K:D Major
DB,|A,DDC DFED|CEAB cBcd|edce dcAB|cAGE FDEC|!
A,DDC DFED|CEAB cBcd|edcA GECD|(3EFE DC D2:|!
AB|cBcd cBcA|dcde dcAB|cded cAGE|(3DED EC DCB,A,|!
cBcd cBcA|dcde d2cd|edfd edcA|d2ec d2cd|!
edfd edcA|d2ec dcAB|cded cAGE|(3DED EC D2|]!


